X:15
T:Twinkle, Twinkle Little Star (#011)
T:Alphabet Song
C:Traditional Kid's Song
M:4/4
L:1/4
K:D
|"D"D D A A|"G"B B "D"A2
w:1~Twin-kle twin-kle lit-tle star,
w:2~When the blaz-ing sun is gone,
w:3~Then the trave-ler in the dark,
w:4~A B C D    E F    G
|"G"G G "D"F F|"A"E/2E/2E/2E/2 "D"D2
w:How I won-der what_ you_ are
w:when he noth-ing shines_ up-_on,
w:thanks you for your ti-_ny_ spark;
w:H I    J K    L  M  N  O      P
|A A "G"G G|"D"F F "A"E2
w:Up a-bove the world so high,
w:Then you show your lit-tle light,
w:He could not see which way~to go,
w:Q R    S and  T U    V
|"D"A A "G"G G|"D"F F "A"E2
w:like a dia-mond in the sky.
w:Twin-kle twin-kle, all the night.
w:If you did not twin-kle so.
w:dou-ble u and  X Y    Z
|"D"D   D    A    A|"G"B B "D"A2
w:Twin-kle twin-kle lit-tle star,
w:Twin-kle twin-kle lit-tle star,
w:Twin-kle twin-kle lit-tle star,
w: Now I've said my   A B    C's.
|"G"G    G "D"F    F|"A"E     E "D"D2|
w:How I won-der what you are!
w:How I won-der what you are!
w:How I won-der what you are!
w:Tell me   what you  think of   me.

%Farther Along - 011
%Scale the output
%%scale 1.21
%%stretchlast 1
%%barsperstaff 0
%%barnumbers -1
%%gchordbox no
%%splittune no
